MA1T1/101/aimg/sol1.svg

<svg clip-rule="evenodd" fill-rule="evenodd" stroke-linejoin="round" stroke-miterlimit="2" viewBox="0 0 60 58" xmlns="http://www.w3.org/2000/svg"><g fill-rule="nonzero"><path d="m16.463 28.097c1.127 1.993 2.452 3.739 4.361 4.913 3.685 2.268 7.681 2.961 11.934 2.169.805-.15 1.707-.116 2.396-.482 1.625-.864 3.416-1.537 4.537-3.147.075-.107.212-.172.222-.18.301.388.573.739.862 1.112.949-.739.563-1.438.188-2.003-.595-.899-1.426-1.445-2.609-1.175.317 1.568-.025 2.398-1.313 3.126-1.932 1.091-4.007 1.706-6.23 1.819-2.095.108-4.099-.198-6.132-.798-2.54-.749-4.544-2.12-6.066-4.21-.551-.759-1.207-1.528-.955-2.677.138-.627-.808-1.068-1.265-.579-.525.559-1.217 1.138-.992 2.179.324-.02.628-.04 1.062-.067m-4.73.277c-.154-5.116 1.615-9.487 5.271-12.879 4.236-3.929 9.36-5.525 15.167-4.665 3.89.576 7.214 2.273 9.875 5.128 2.442 2.622 3.959 5.775 4.586 9.314.708 3.998.312 7.878-1.587 11.506-2.775 5.302-7.054 8.464-13.069 9.383-9.592 1.468-18.388-5.501-20.058-15.045-.16-.915-.13-1.862-.185-2.742" fill="#fdba11"/><path d="m40.994 19.293c0 3.55-5.197 6.427-11.608 6.427s-11.607-2.877-11.607-6.427 5.196-6.428 11.607-6.428 11.608 2.878 11.608 6.428" fill="#ffe26a"/><path d="m27.909 54.183c1.693-2.694 4.011-3.333 6.497-3.823 2.468-.488 4.842-.798 7.194.794.341-2.556 1.564-4.434 3.28-6.066 1.709-1.626 3.75-2.556 6.203-2.986-1.2-2.516-1.522-4.906-.461-7.325 1.072-2.448 2.904-4.073 5.63-4.828-2.017-1.825-3.509-3.757-4.033-6.374-.552-2.752.725-4.821 2.232-6.867-1.059.061-2.039.088-3.013.18-1.342.127-2.495-.362-3.549-1.087-.942-.648-1.494-1.534-1.542-2.756-.066-1.682-.203-3.354.5-4.946-.172-.049-.228-.085-.268-.072-.522.166-1.042.335-1.56.51-3.123 1.057-5.723.281-7.773-2.275-.993-1.238-1.909-2.538-2.93-3.904-.354.457-.666.9-1.017 1.308-1.663 1.931-3.735 3.083-6.323 2.915-1.807-.117-3.59-.567-5.202-1.429-1.083-.579-2.065-1.348-3.14-2.063.281 3.001-.627 5.715-2.896 7.633-2.309 1.951-5.128 2.511-8.284 1.183.217.411.276.56.366.688 2.444 3.448 1.968 6.809-1.384 9.308-1.029.766-2.172 1.382-3.061 1.939.76.845 1.566 1.745 2.378 2.64 1.752 1.929 1.989 4.308.619 6.477-.566.896-1.166 1.77-1.796 2.725 1.884.54 3.637.967 5.338 1.547 2.508.856 4.297 4.38 3.605 6.973-.257.964-.589 1.908-.94 3.032.954-.257 1.677-.509 2.422-.641 3.069-.544 6.044-.056 8.387 1.946 1.698 1.453 3.695 2.808 4.521 5.644m7.211-54.12c.174.334.365.554.403.796.482 3.14 2.513 5.139 5.016 6.758 1.222.789 2.587.426 3.827.067 1.08-.312 2.065-.954 3.092-1.45.238-.115.475-.229.778-.375.346.814-.004 1.456-.212 2.108-.411 1.293-.997 2.51-.91 3.959.134 2.27 1.422 3.662 3.907 3.781 1.512.072 3.044-.26 4.566-.415.252-.026.501-.076.892-.137-.762 1.314-1.421 2.482-2.11 3.632-1.868 3.118-1.32 6.777 1.424 9.166.943.821 1.951 1.566 3.169 2.536-.837.204-1.474.435-2.129.507-3.396.371-6.971 4.819-5.388 8.955.481 1.254 1.025 2.486 1.597 3.867-.345-.056-.645-.061-.915-.154-1.214-.42-2.43-.317-3.522.248-2.21 1.143-4.338 2.467-5.225 4.976-.412 1.164-.561 2.423-.813 3.642-.051.242-.03.5-.052.945-.631-.543-1.112-.956-1.592-1.369-1.155-.993-2.495-1.366-3.988-1.124-1.293.209-2.579.465-3.864.721-2.287.455-3.753 1.913-4.745 3.935-.211.431-.413.866-.758 1.594-.193-.538-.345-.792-.37-1.058-.206-2.202-1.18-3.954-2.989-5.238-.223-.158-.507-.309-.619-.534-.993-1.989-2.991-2.278-4.802-2.816-1.993-.592-3.898-.095-5.727.767-1.403.662-1.52.686-2.785.702.671-1.474 1.427-2.917 1.995-4.431.995-2.65-.662-5.863-3.358-6.676-.944-.286-1.891-.571-2.849-.804-1.431-.348-2.873-.659-4.446-.164.009-.812.564-1.028.972-1.289 1.339-.858 2.208-2.106 2.996-3.433.835-1.408.731-2.768-.061-4.188-.857-1.538-2.174-2.596-3.53-3.606-.492-.367-1.198-.446-1.955-.708.389-.618.919-.618 1.429-.714 1.918-.363 3.689-1.012 5.083-2.487 1.909-2.019 2.162-4.707.64-7.057-.625-.964-1.183-1.973-1.75-2.974-.126-.223-.159-.499-.312-1.007.923.399 1.669.666 2.363 1.029 4.352 2.279 9.126.036 10.082-5.509.129-.747.056-1.531.066-2.298.008-.639.001-1.279.001-2.213 1.024.834 1.828 1.392 2.517 2.068 1.992 1.954 4.495 2.655 7.144 2.923 2.031.206 3.559-.928 4.899-2.272.771-.773 1.396-1.689 2.109-2.521.199-.231.477-.394.809-.661" fill="#231f20"/><path d="m48.194 29.924c.067-4.414-.753-7.749-2.491-10.806-2.183-3.842-5.361-6.569-9.487-8.262-3.756-1.542-7.567-1.696-11.437-.788-3.44.806-6.385 2.564-8.886 5.078-4.409 4.435-5.846 9.874-5.026 15.881.736 5.389 3.369 9.756 7.902 12.962 3.152 2.231 6.58 3.473 10.413 3.569 4.572.114 8.65-1.363 12.202-4.184 1.932-1.534 3.732-3.278 4.714-5.61 1.171-2.781 2.176-5.627 2.096-7.84m-20.285 24.26c-.825-2.836-2.823-4.192-4.521-5.644-2.342-2.003-5.318-2.49-8.386-1.946-.746.132-1.469.384-2.422.641.35-1.124.682-2.068.94-3.033.691-2.592-1.097-6.116-3.606-6.972-1.701-.58-3.454-1.007-5.338-1.547.631-.955 1.231-1.829 1.797-2.725 1.369-2.169 1.133-4.549-.619-6.477-.813-.895-1.619-1.795-2.379-2.64.889-.558 2.032-1.173 3.061-1.939 3.353-2.499 3.828-5.86 1.384-9.309-.09-.127-.149-.276-.365-.688 3.155 1.329 5.974.769 8.283-1.183 2.269-1.917 3.178-4.631 2.896-7.632 1.075.715 2.057 1.483 3.141 2.063 1.611.862 3.394 1.312 5.202 1.429 2.587.168 4.659-.984 6.322-2.915.352-.409.664-.851 1.018-1.308 1.021 1.366 1.937 2.666 2.929 3.903 2.05 2.557 4.651 3.332 7.773 2.276.519-.175 1.039-.344 1.56-.51.04-.014.096.023.269.071-.703 1.593-.567 3.264-.501 4.947.048 1.222.6 2.108 1.542 2.755 1.055.726 2.208 1.214 3.55 1.087.973-.091 1.953-.118 3.013-.179-1.508 2.046-2.784 4.115-2.233 6.866.525 2.618 2.017 4.55 4.033 6.374-2.726.756-4.558 2.381-5.63 4.829-1.06 2.418-.739 4.809.461 7.325-2.453.429-4.493 1.36-6.202 2.986-1.717 1.632-2.94 3.51-3.28 6.065-2.353-1.591-4.727-1.281-7.195-.793-2.485.49-4.803 1.128-6.497 3.823" fill="#ffd900"/><g fill="#231f20"><path d="m11.733 28.374c.055.88.025 1.827.185 2.741 1.67 9.544 10.466 16.514 20.058 15.046 6.015-.92 10.294-4.081 13.069-9.384 1.899-3.628 2.295-7.507 1.587-11.506-.627-3.539-2.144-6.691-4.587-9.313-2.66-2.855-5.984-4.552-9.874-5.128-5.807-.86-10.931.736-15.167 4.665-3.656 3.392-5.425 7.763-5.271 12.879m36.461 1.55c.08 2.213-.925 5.058-2.096 7.84-.982 2.332-2.782 4.076-4.714 5.61-3.552 2.821-7.63 4.298-12.202 4.184-3.833-.096-7.261-1.338-10.413-3.569-4.533-3.206-7.166-7.573-7.902-12.963-.82-6.006.616-11.445 5.026-15.88 2.501-2.515 5.446-4.272 8.886-5.079 3.87-.907 7.681-.753 11.437.789 4.126 1.693 7.304 4.42 9.487 8.262 1.738 3.057 2.558 6.392 2.491 10.806"/><path d="m16.463 28.097c-.434.027-.738.047-1.062.067-.225-1.041.467-1.62.992-2.179.457-.489 1.403-.048 1.265.579-.252 1.149.404 1.918.955 2.677 1.522 2.09 3.526 3.461 6.066 4.21 2.033.6 4.037.906 6.132.798 2.223-.113 4.298-.728 6.23-1.819 1.288-.728 1.63-1.558 1.313-3.126 1.183-.27 2.014.276 2.609 1.175.375.565.761 1.264-.188 2.003-.289-.373-.561-.724-.862-1.112-.01.008-.147.073-.222.18-1.121 1.61-2.912 2.283-4.537 3.147-.689.366-1.591.332-2.396.482-4.253.792-8.249.099-11.934-2.169-1.909-1.174-3.234-2.92-4.361-4.913"/><path d="m28.139 19.293c0 1.324-.558 2.398-1.247 2.398s-1.247-1.074-1.247-2.398c0-1.325.558-2.398 1.247-2.398s1.247 1.073 1.247 2.398"/><path d="m33.607 19.389c0 1.325-.559 2.398-1.247 2.398-.689 0-1.247-1.073-1.247-2.398s.558-2.398 1.247-2.398c.688 0 1.247 1.073 1.247 2.398"/></g></g></svg>

<?xml version="1.0" encoding="UTF-8" standalone="no"?>
<!DOCTYPE svg PUBLIC "-//W3C//DTD SVG 1.1//EN" "http://www.w3.org/Graphics/SVG/1.1/DTD/svg11.dtd">
<svg width="100%" height="100%" viewBox="0 0 60 58" version="1.1" xmlns="http://www.w3.org/2000/svg" xmlns:xlink="http://www.w3.org/1999/xlink" xml:space="preserve" xmlns:serif="http://www.serif.com/" style="fill-rule:evenodd;clip-rule:evenodd;stroke-linejoin:round;stroke-miterlimit:2;">
    <g>
        <path d="M16.463,28.097C17.59,30.09 18.915,31.836 20.824,33.01C24.509,35.278 28.505,35.971 32.758,35.179C33.563,35.029 34.465,35.063 35.154,34.697C36.779,33.833 38.57,33.16 39.691,31.55C39.766,31.443 39.903,31.378 39.913,31.37C40.214,31.758 40.486,32.109 40.775,32.482C41.724,31.743 41.338,31.044 40.963,30.479C40.368,29.58 39.537,29.034 38.354,29.304C38.671,30.872 38.329,31.702 37.041,32.43C35.109,33.521 33.034,34.136 30.811,34.249C28.716,34.357 26.712,34.051 24.679,33.451C22.139,32.702 20.135,31.331 18.613,29.241C18.062,28.482 17.406,27.713 17.658,26.564C17.796,25.937 16.85,25.496 16.393,25.985C15.868,26.544 15.176,27.123 15.401,28.164C15.725,28.144 16.029,28.124 16.463,28.097M11.733,28.374C11.579,23.258 13.348,18.887 17.004,15.495C21.24,11.566 26.364,9.97 32.171,10.83C36.061,11.406 39.385,13.103 42.046,15.958C44.488,18.58 46.005,21.733 46.632,25.272C47.34,29.27 46.944,33.15 45.045,36.778C42.27,42.08 37.991,45.242 31.976,46.161C22.384,47.629 13.588,40.66 11.918,31.116C11.758,30.201 11.788,29.254 11.733,28.374" style="fill:rgb(253,186,17);fill-rule:nonzero;"/>
        <path d="M40.994,19.293C40.994,22.843 35.797,25.72 29.386,25.72C22.975,25.72 17.779,22.843 17.779,19.293C17.779,15.743 22.975,12.865 29.386,12.865C35.797,12.865 40.994,15.743 40.994,19.293" style="fill:rgb(255,226,106);fill-rule:nonzero;"/>
        <path d="M27.909,54.183C29.602,51.489 31.92,50.85 34.406,50.36C36.874,49.872 39.248,49.562 41.6,51.154C41.941,48.598 43.164,46.72 44.88,45.088C46.589,43.462 48.63,42.532 51.083,42.102C49.883,39.586 49.561,37.196 50.622,34.777C51.694,32.329 53.526,30.704 56.252,29.949C54.235,28.124 52.743,26.192 52.219,23.575C51.667,20.823 52.944,18.754 54.451,16.708C53.392,16.769 52.412,16.796 51.438,16.888C50.096,17.015 48.943,16.526 47.889,15.801C46.947,15.153 46.395,14.267 46.347,13.045C46.281,11.363 46.144,9.691 46.847,8.099C46.675,8.05 46.619,8.014 46.579,8.027C46.057,8.193 45.537,8.362 45.019,8.537C41.896,9.594 39.296,8.818 37.246,6.262C36.253,5.024 35.337,3.724 34.316,2.358C33.962,2.815 33.65,3.258 33.299,3.666C31.636,5.597 29.564,6.749 26.976,6.581C25.169,6.464 23.386,6.014 21.774,5.152C20.691,4.573 19.709,3.804 18.634,3.089C18.915,6.09 18.007,8.804 15.738,10.722C13.429,12.673 10.61,13.233 7.454,11.905C7.671,12.316 7.73,12.465 7.82,12.593C10.264,16.041 9.788,19.402 6.436,21.901C5.407,22.667 4.264,23.283 3.375,23.84C4.135,24.685 4.941,25.585 5.753,26.48C7.505,28.409 7.742,30.788 6.372,32.957C5.806,33.853 5.206,34.727 4.576,35.682C6.46,36.222 8.213,36.649 9.914,37.229C12.422,38.085 14.211,41.609 13.519,44.202C13.262,45.166 12.93,46.11 12.579,47.234C13.533,46.977 14.256,46.725 15.001,46.593C18.07,46.049 21.045,46.537 23.388,48.539C25.086,49.992 27.083,51.347 27.909,54.183M35.12,0.063C35.294,0.397 35.485,0.617 35.523,0.859C36.005,3.999 38.036,5.998 40.539,7.617C41.761,8.406 43.126,8.043 44.366,7.684C45.446,7.372 46.431,6.73 47.458,6.234C47.696,6.119 47.933,6.005 48.236,5.859C48.582,6.673 48.232,7.315 48.024,7.967C47.613,9.26 47.027,10.477 47.114,11.926C47.248,14.196 48.536,15.588 51.021,15.707C52.533,15.779 54.065,15.447 55.587,15.292C55.839,15.266 56.088,15.216 56.479,15.155C55.717,16.469 55.058,17.637 54.369,18.787C52.501,21.905 53.049,25.564 55.793,27.953C56.736,28.774 57.744,29.519 58.962,30.489C58.125,30.693 57.488,30.924 56.833,30.996C53.437,31.367 49.862,35.815 51.445,39.951C51.926,41.205 52.47,42.437 53.042,43.818C52.697,43.762 52.397,43.757 52.127,43.664C50.913,43.244 49.697,43.347 48.605,43.912C46.395,45.055 44.267,46.379 43.38,48.888C42.968,50.052 42.819,51.311 42.567,52.53C42.516,52.772 42.537,53.03 42.515,53.475C41.884,52.932 41.403,52.519 40.923,52.106C39.768,51.113 38.428,50.74 36.935,50.982C35.642,51.191 34.356,51.447 33.071,51.703C30.784,52.158 29.318,53.616 28.326,55.638C28.115,56.069 27.913,56.504 27.568,57.232C27.375,56.694 27.223,56.44 27.198,56.174C26.992,53.972 26.018,52.22 24.209,50.936C23.986,50.778 23.702,50.627 23.59,50.402C22.597,48.413 20.599,48.124 18.788,47.586C16.795,46.994 14.89,47.491 13.061,48.353C11.658,49.015 11.541,49.039 10.276,49.055C10.947,47.581 11.703,46.138 12.271,44.624C13.266,41.974 11.609,38.761 8.913,37.948C7.969,37.662 7.022,37.377 6.064,37.144C4.633,36.796 3.191,36.485 1.618,36.98C1.627,36.168 2.182,35.952 2.59,35.691C3.929,34.833 4.798,33.585 5.586,32.258C6.421,30.85 6.317,29.49 5.525,28.07C4.668,26.532 3.351,25.474 1.995,24.464C1.503,24.097 0.797,24.018 0.04,23.756C0.429,23.138 0.959,23.138 1.469,23.042C3.387,22.679 5.158,22.03 6.552,20.555C8.461,18.536 8.714,15.848 7.192,13.498C6.567,12.534 6.009,11.525 5.442,10.524C5.316,10.301 5.283,10.025 5.13,9.517C6.053,9.916 6.799,10.183 7.493,10.546C11.845,12.825 16.619,10.582 17.575,5.037C17.704,4.29 17.631,3.506 17.641,2.739C17.649,2.1 17.642,1.46 17.642,0.526C18.666,1.36 19.47,1.918 20.159,2.594C22.151,4.548 24.654,5.249 27.303,5.517C29.334,5.723 30.862,4.589 32.202,3.245C32.973,2.472 33.598,1.556 34.311,0.724C34.51,0.493 34.788,0.33 35.12,0.063" style="fill:rgb(35,31,32);fill-rule:nonzero;"/>
        <path d="M48.194,29.924C48.261,25.51 47.441,22.175 45.703,19.118C43.52,15.276 40.342,12.549 36.216,10.856C32.46,9.314 28.649,9.16 24.779,10.068C21.339,10.874 18.394,12.632 15.893,15.146C11.484,19.581 10.047,25.02 10.867,31.027C11.603,36.416 14.236,40.783 18.769,43.989C21.921,46.22 25.349,47.462 29.182,47.558C33.754,47.672 37.832,46.195 41.384,43.374C43.316,41.84 45.116,40.096 46.098,37.764C47.269,34.983 48.274,32.137 48.194,29.924M27.909,54.184C27.084,51.348 25.086,49.992 23.388,48.54C21.046,46.537 18.07,46.05 15.002,46.594C14.256,46.726 13.533,46.978 12.58,47.235C12.93,46.111 13.262,45.167 13.52,44.202C14.211,41.61 12.423,38.086 9.914,37.23C8.213,36.65 6.46,36.223 4.576,35.683C5.207,34.728 5.807,33.854 6.373,32.958C7.742,30.789 7.506,28.409 5.754,26.481C4.941,25.586 4.135,24.686 3.375,23.841C4.264,23.283 5.407,22.668 6.436,21.902C9.789,19.403 10.264,16.042 7.82,12.593C7.73,12.466 7.671,12.317 7.455,11.905C10.61,13.234 13.429,12.674 15.738,10.722C18.007,8.805 18.916,6.091 18.634,3.09C19.709,3.805 20.691,4.573 21.775,5.153C23.386,6.015 25.169,6.465 26.977,6.582C29.564,6.75 31.636,5.598 33.299,3.667C33.651,3.258 33.963,2.816 34.317,2.359C35.338,3.725 36.254,5.025 37.246,6.262C39.296,8.819 41.897,9.594 45.019,8.538C45.538,8.363 46.058,8.194 46.579,8.028C46.619,8.014 46.675,8.051 46.848,8.099C46.145,9.692 46.281,11.363 46.347,13.046C46.395,14.268 46.947,15.154 47.889,15.801C48.944,16.527 50.097,17.015 51.439,16.888C52.412,16.797 53.392,16.77 54.452,16.709C52.944,18.755 51.668,20.824 52.219,23.575C52.744,26.193 54.236,28.125 56.252,29.949C53.526,30.705 51.694,32.33 50.622,34.778C49.562,37.196 49.883,39.587 51.083,42.103C48.63,42.532 46.59,43.463 44.881,45.089C43.164,46.721 41.941,48.599 41.601,51.154C39.248,49.563 36.874,49.873 34.406,50.361C31.921,50.851 29.603,51.489 27.909,54.184" style="fill:rgb(255,217,0);fill-rule:nonzero;"/>
        <path d="M11.733,28.374C11.788,29.254 11.758,30.201 11.918,31.115C13.588,40.659 22.384,47.629 31.976,46.161C37.991,45.241 42.27,42.08 45.045,36.777C46.944,33.149 47.34,29.27 46.632,25.271C46.005,21.732 44.488,18.58 42.045,15.958C39.385,13.103 36.061,11.406 32.171,10.83C26.364,9.97 21.24,11.566 17.004,15.495C13.348,18.887 11.579,23.258 11.733,28.374M48.194,29.924C48.274,32.137 47.269,34.982 46.098,37.764C45.116,40.096 43.316,41.84 41.384,43.374C37.832,46.195 33.754,47.672 29.182,47.558C25.349,47.462 21.921,46.22 18.769,43.989C14.236,40.783 11.603,36.416 10.867,31.026C10.047,25.02 11.483,19.581 15.893,15.146C18.394,12.631 21.339,10.874 24.779,10.067C28.649,9.16 32.46,9.314 36.216,10.856C40.342,12.549 43.52,15.276 45.703,19.118C47.441,22.175 48.261,25.51 48.194,29.924" style="fill:rgb(35,31,32);fill-rule:nonzero;"/>
        <path d="M16.463,28.097C16.029,28.124 15.725,28.144 15.401,28.164C15.176,27.123 15.868,26.544 16.393,25.985C16.85,25.496 17.796,25.937 17.658,26.564C17.406,27.713 18.062,28.482 18.613,29.241C20.135,31.331 22.139,32.702 24.679,33.451C26.712,34.051 28.716,34.357 30.811,34.249C33.034,34.136 35.109,33.521 37.041,32.43C38.329,31.702 38.671,30.872 38.354,29.304C39.537,29.034 40.368,29.58 40.963,30.479C41.338,31.044 41.724,31.743 40.775,32.482C40.486,32.109 40.214,31.758 39.913,31.37C39.903,31.378 39.766,31.443 39.691,31.55C38.57,33.16 36.779,33.833 35.154,34.697C34.465,35.063 33.563,35.029 32.758,35.179C28.505,35.971 24.509,35.278 20.824,33.01C18.915,31.836 17.59,30.09 16.463,28.097" style="fill:rgb(35,31,32);fill-rule:nonzero;"/>
        <path d="M28.139,19.293C28.139,20.617 27.581,21.691 26.892,21.691C26.203,21.691 25.645,20.617 25.645,19.293C25.645,17.968 26.203,16.895 26.892,16.895C27.581,16.895 28.139,17.968 28.139,19.293" style="fill:rgb(35,31,32);fill-rule:nonzero;"/>
        <path d="M33.607,19.389C33.607,20.714 33.048,21.787 32.36,21.787C31.671,21.787 31.113,20.714 31.113,19.389C31.113,18.064 31.671,16.991 32.36,16.991C33.048,16.991 33.607,18.064 33.607,19.389" style="fill:rgb(35,31,32);fill-rule:nonzero;"/>
    </g>
</svg>
